dist/icons/about_me/web_development.svg

<svg width="25" height="24" viewBox="0 0 25 24" fill="none" xmlns="http://www.w3.org/2000/svg">
<path d="M0 0V20.5205H8.02402V21.9877H6.55742V23.4526H18.4425V21.9877H16.9759V20.5205H25V0H0ZM15.511 21.9877H9.48897V20.5205H15.511V21.9877H15.511ZM23.5351 19.0556H1.46489V16.1222H23.5351V19.0556H23.5351ZM23.5351 14.6573H1.46489V1.46494H23.5351V14.6573H23.5351Z" fill="black"/>
<path d="M9.95816 5.4134L8.92232 4.37756L5.23877 8.06111L8.92232 11.7446L9.95816 10.7088L7.31045 8.06111L9.95816 5.4134Z" fill="black"/>
<path d="M16.0777 4.37756L15.0419 5.4134L17.6896 8.06111L15.0419 10.7088L16.0777 11.7446L19.7612 8.06111L16.0777 4.37756Z" fill="black"/>
<path d="M12.6319 3.64405L10.9313 12.1931L12.3681 12.4789L14.0687 3.92986L12.6319 3.64405Z" fill="black"/>
</svg>

<svg width="25" height="24" fill="none" xmlns="http://www.w3.org/2000/svg"><path d="M0 0v20.52h8.024v1.468H6.557v1.465h11.885v-1.465h-1.466V20.52H25V0H0zm15.511 21.988H9.489V20.52h6.022v1.468zm8.024-2.932H1.465v-2.934h22.07v2.934zm0-4.399H1.465V1.465h22.07v13.192z" fill="#000"/><path d="M9.958 5.413L8.922 4.378 5.24 8.06l3.683 3.684 1.036-1.036L7.31 8.06l2.648-2.648zM16.078 4.378l-1.036 1.035 2.648 2.648-2.648 2.648 1.036 1.036L19.76 8.06l-3.683-3.683zM12.632 3.644l-1.7 8.55 1.436.285 1.7-8.55-1.436-.285z" fill="#000"/></svg>
